X:24
T:Menuette del J. Miklin
R:Menuett
O:Östergötland
B:Magnus Juringius notbok
N:Smus MMD1 bild 15
M:3/4
L:1/8
K:D
D2 FA d2 | f2 f2 e2 | A,2 CE A2 | g2 g2 f2 | ((3gab) ((3efg) ((3Bcd) | c4 d2 | ef g2 f2 | e4 :|:
A2 cd e2 | e2 d2 c2 | eaecdG | A6 | fg a2 a2 | ef g2 g2 | fa d2 c2 | d6 :|:
f2 f2 e2 | d2 ec d2 | A2 B2 c2 | d6 | B2 dc d2 | A2 dc d2 | EF G2 F2 | E6 :|:
e4 d2 | c4 B2 | Ac B2 ^G2 | [A6F6] | f2 f2 e2 | d2 cBAG | FAFDEC | D6 :|

